svg/color/celr.svg

<svg width="64" height="65" viewBox="0 0 64 65" fill="none" xmlns="http://www.w3.org/2000/svg">
<rect y="0.303711" width="64" height="64" rx="32" fill="white"/>
<rect x="0.5" y="0.803711" width="63" height="63" rx="31.5" stroke="#070B14" stroke-opacity="0.15"/>
<path fill-rule="evenodd" clip-rule="evenodd" d="M54.7972 30.3611C55.2253 29.1938 57.0159 28.6395 58.0941 28.6395H58.5846V31.2298C57.9694 31.2298 57.3421 31.1974 56.7509 31.3989C56.34 31.5311 55.9755 31.7779 55.7003 32.1104C55.1978 32.7882 55.2397 33.2069 55.2002 33.8428C55.163 34.4607 55.1798 34.883 55.1798 35.5021V40.0971H52.3482V28.7559H54.802L54.7972 30.3611ZM20.3708 37.4109C18.3428 39.3964 16.593 40.3562 13.7122 40.3562C8.91502 40.3562 5.60254 37.0053 5.60254 32.2867C5.60254 27.441 9.35876 24.2604 13.7578 24.2604C16.3256 24.2634 18.7647 25.3856 20.4379 27.3342L18.3859 29.2982C16.9983 27.8249 15.4836 27.057 13.6907 27.057C10.8123 27.057 8.46288 29.2766 8.46288 32.2867C8.46288 35.4469 10.7248 37.5596 13.7554 37.5596C15.6539 37.5596 16.9348 36.7918 18.3859 35.3401L20.3708 37.4109ZM32.52 37.8344C31.3039 39.5644 29.7004 40.337 27.3126 40.337C23.7063 40.337 21.3809 37.6904 21.3809 34.3599C21.3809 31.2646 23.6212 28.4032 27.2706 28.4032C30.8554 28.4032 33.2876 30.9658 33.2876 34.5519C33.2876 34.8086 33.2672 34.9358 33.2672 35.1925H24.1333C24.4103 36.8794 25.6924 37.8176 27.3126 37.8176C28.5287 37.8176 29.3406 37.4768 30.1298 36.7078L32.52 37.8344ZM30.4284 32.9454C30.0446 31.6257 28.8285 30.8111 27.3102 30.8111C25.9022 30.8111 24.8133 31.5153 24.2592 32.9454H30.4284ZM34.726 24.3216H37.5635V40.0383H34.726V24.3216ZM50.1411 37.8344C48.925 39.5644 47.3239 40.337 44.9337 40.337C41.3274 40.337 39.0019 37.6904 39.0019 34.3599C39.0019 31.2646 41.2422 28.4032 44.8917 28.4032C48.4764 28.4032 50.9098 30.9658 50.9098 34.5519C50.9098 34.8086 50.8882 34.9358 50.8882 35.1925H41.7543C42.0314 36.8794 43.3134 37.8176 44.9337 37.8176C46.151 37.8176 46.9617 37.4768 47.7508 36.7078L50.1411 37.8344ZM48.0495 32.9454C47.6657 31.6257 46.4496 30.8111 44.9313 30.8111C43.5233 30.8111 42.4355 31.5153 41.8802 32.9454H48.0495Z" fill="black"/>
</svg>

<svg xmlns="http://www.w3.org/2000/svg" width="64" height="65" fill="none" viewBox="0 0 64 65"><rect width="64" height="64" y=".304" fill="#fff" rx="32"/><rect width="63" height="63" x=".5" y=".804" stroke="#070B14" stroke-opacity=".15" rx="31.5"/><path fill="#000" fill-rule="evenodd" d="M54.797 30.361c.428-1.167 2.219-1.721 3.297-1.721h.49v2.59c-.615 0-1.242-.033-1.833.169a2.26 2.26 0 0 0-1.05.711c-.503.678-.461 1.097-.5 1.733-.038.618-.021 1.04-.021 1.66v4.594h-2.832V28.756h2.454zm-34.426 7.05c-2.028 1.985-3.778 2.945-6.659 2.945-4.797 0-8.11-3.35-8.11-8.07 0-4.845 3.757-8.026 8.156-8.026a8.82 8.82 0 0 1 6.68 3.074l-2.052 1.964c-1.388-1.473-2.902-2.241-4.695-2.241-2.879 0-5.228 2.22-5.228 5.23 0 3.16 2.262 5.273 5.292 5.273 1.899 0 3.18-.768 4.63-2.22zm12.149.423c-1.216 1.73-2.82 2.503-5.207 2.503-3.607 0-5.932-2.647-5.932-5.977 0-3.095 2.24-5.957 5.89-5.957 3.584 0 6.017 2.563 6.017 6.149 0 .257-.02.384-.02.64h-9.135c.277 1.687 1.56 2.626 3.18 2.626 1.216 0 2.028-.341 2.817-1.11zm-2.092-4.889c-.383-1.32-1.6-2.134-3.118-2.134-1.408 0-2.497.704-3.05 2.134zm4.298-8.623h2.837v15.716h-2.837zm15.415 13.512c-1.216 1.73-2.817 2.503-5.207 2.503-3.607 0-5.932-2.647-5.932-5.977 0-3.095 2.24-5.957 5.89-5.957 3.584 0 6.018 2.563 6.018 6.149 0 .257-.022.384-.022.64h-9.134c.277 1.687 1.56 2.626 3.18 2.626 1.217 0 2.028-.341 2.817-1.11zm-2.091-4.889c-.384-1.32-1.6-2.134-3.119-2.134-1.408 0-2.495.704-3.05 2.134z" clip-rule="evenodd"/></svg>
